example/assets/tiler/product-logos/TeamCity.svg

<svg width="105" height="105" viewBox="0 0 105 105" fill="none" xmlns="http://www.w3.org/2000/svg">
<path d="M28.94 87.5201L8.82 34.6101C7.56201 31.3062 7.11346 27.7492 7.51187 24.2365C7.91028 20.7238 9.14406 17.3576 11.11 14.4195C13.076 11.4813 15.7169 9.05663 18.812 7.34829C21.907 5.63994 25.3661 4.69759 28.9 4.60006C33.6609 4.47792 38.3342 5.89491 42.2256 8.64049C46.117 11.3861 49.0188 15.3138 50.5 19.8401L68.11 73.6301C71.66 84.48 32.92 98 28.94 87.5201Z" fill="url(#paint0_linear)"/>
<path d="M89.31 70.7298L40 97.3998C37.1156 98.9599 33.9403 99.9084 30.6728 100.186C27.4052 100.464 24.1155 100.065 21.0091 99.0135C17.9028 97.9624 15.0466 96.282 12.619 94.0773C10.1913 91.8725 8.24448 89.1909 6.90001 86.1998C5.57468 83.2647 4.85617 80.0921 4.78764 76.8725C4.71911 73.6528 5.30196 70.4525 6.50121 67.4637C7.70045 64.475 9.49135 61.7594 11.7663 59.4801C14.0413 57.2007 16.7535 55.4047 19.74 54.1998L71.74 33.1998C76.0382 31.4652 80.7944 31.2241 85.2461 32.5151C89.6977 33.8062 93.5868 36.5546 96.29 40.3198C98.017 42.7152 99.2131 45.4516 99.7984 48.3461C100.384 51.2406 100.345 54.2266 99.6841 57.1049C99.0234 59.9831 97.7563 62.6873 95.9674 65.0369C94.1784 67.3864 91.9088 69.3272 89.31 70.7298Z" fill="url(#paint1_linear)"/>
<path d="M70.68 71.1899L19.76 46.5799C16.5781 45.0383 13.8113 42.7578 11.6906 39.9288C9.56991 37.0998 8.15691 33.8044 7.56963 30.3179C6.98234 26.8314 7.23782 23.255 8.31473 19.8874C9.39164 16.5198 11.2587 13.4587 13.76 10.9599C17.1292 7.59213 21.4972 5.40434 26.2119 4.72308C30.9267 4.04182 35.7353 4.90363 39.92 7.17986L89.62 34.1799C94.4282 36.7974 98.0119 41.2035 99.5953 46.444C101.179 51.6845 100.634 57.3378 98.08 62.1799C95.5709 66.9398 91.3117 70.5395 86.2002 72.2203C81.0888 73.9011 75.5244 73.5317 70.68 71.1899Z" fill="url(#paint2_linear)"/>
<path d="M18.58 98.3304C15.2162 96.7956 12.2507 94.5074 9.91285 91.643C7.57504 88.7785 5.92765 85.4146 5.09816 81.8114C4.26868 78.2083 4.27936 74.4627 5.12936 70.8643C5.97936 67.266 7.64589 63.9115 9.99999 61.0604L53.08 9.00038C54.7557 6.96994 57.0527 5.54691 59.6169 4.95058C62.1811 4.35426 64.8703 4.61772 67.27 5.70038C70.0243 6.94186 72.2118 9.1727 73.399 11.9509C74.5862 14.729 74.6865 17.8518 73.68 20.7004L51.22 84.4304C50.1176 87.5821 48.3697 90.4691 46.0881 92.9068C43.8064 95.3445 41.0412 97.2794 37.9692 98.5876C34.8973 99.8958 31.5861 100.549 28.2475 100.504C24.9088 100.46 21.6162 99.7196 18.58 98.3304Z" fill="url(#paint3_linear)"/>
<path d="M22.5 22.5H82.5V82.5H22.5V22.5Z" fill="black"/>
<path d="M29.98 71.1602H52.48V74.9102H29.98V71.1602Z" fill="white"/>
<path d="M36.03 34.4902H29.16V29.9102H47.86V34.4902H40.99V52.4802H36.03V34.4902Z" fill="white"/>
<path d="M49.73 41.2598V41.1998C49.701 39.6508 49.9864 38.1121 50.569 36.6765C51.1515 35.241 52.0191 33.9384 53.1192 32.8476C54.2193 31.7568 55.5292 30.9004 56.9697 30.3302C58.4102 29.7599 59.9513 29.4876 61.5 29.5298C63.1445 29.4458 64.7882 29.7116 66.3224 30.3098C67.8565 30.9079 69.2464 31.8248 70.4 32.9998L67.24 36.6398C65.7223 35.0648 63.6465 34.149 61.46 34.0898C57.66 34.0898 54.92 37.2498 54.92 41.0898V41.1598C54.92 45.0298 57.6 48.2498 61.46 48.2498C64.04 48.2498 65.62 47.2498 67.4 45.6098L70.56 48.7998C69.4196 50.1235 67.9937 51.1713 66.3897 51.8641C64.7858 52.557 63.0455 52.8769 61.3 52.7998C59.7765 52.824 58.2635 52.5423 56.8508 51.9713C55.4381 51.4003 54.1543 50.5517 53.0755 49.4757C51.9967 48.3996 51.1447 47.118 50.57 45.7068C49.9954 44.2956 49.7097 42.7834 49.73 41.2598Z" fill="white"/>
<defs>
<linearGradient id="paint0_linear" x1="41.73" y1="62.9701" x2="33.52" y2="38.6701" gradientUnits="userSpaceOnUse">
<stop stop-color="#07C3F2"/>
<stop offset="1" stop-color="#6B57FF"/>
</linearGradient>
<linearGradient id="paint1_linear" x1="38.93" y1="71.2098" x2="68.35" y2="56.4398" gradientUnits="userSpaceOnUse">
<stop stop-color="#07C3F2"/>
<stop offset="1" stop-color="#009AE5"/>
</linearGradient>
<linearGradient id="paint2_linear" x1="76.23" y1="56.7599" x2="27.55" y2="20.0099" gradientUnits="userSpaceOnUse">
<stop stop-color="#009AE5"/>
<stop offset="1" stop-color="#6B57FF"/>
</linearGradient>
<linearGradient id="paint3_linear" x1="25.79" y1="82.0304" x2="58.95" y2="14.5004" gradientUnits="userSpaceOnUse">
<stop offset="0.3" stop-color="#07C3F2"/>
<stop offset="0.6" stop-color="#3BEA62"/>
</linearGradient>
</defs>
</svg>

<?xml version="1.0" encoding="utf-8"?>
<!-- Generator: Adobe Illustrator 25.2.3, SVG Export Plug-In . SVG Version: 6.00 Build 0)  -->
<svg version="1.1" id="Layer_1" xmlns="http://www.w3.org/2000/svg" xmlns:xlink="http://www.w3.org/1999/xlink" x="0px" y="0px"
	 viewBox="0 0 105 105" style="enable-background:new 0 0 105 105;" xml:space="preserve">
<style type="text/css">
	.st0{fill:url(#SVGID_1_);}
	.st1{fill:url(#SVGID_2_);}
	.st2{fill:url(#SVGID_3_);}
	.st3{fill:url(#SVGID_4_);}
</style>
<linearGradient id="SVGID_1_" gradientUnits="userSpaceOnUse" x1="41.729" y1="43.0296" x2="33.519" y2="67.3296" gradientTransform="matrix(1 0 0 -1 0 106)">
	<stop  offset="0" style="stop-color:#07C3F2"/>
	<stop  offset="1" style="stop-color:#6B57FF"/>
</linearGradient>
<path class="st0" d="M28.9,87.5L8.8,34.6c-1.3-3.3-1.7-6.9-1.3-10.4c0.4-3.5,1.6-6.9,3.6-9.8c2-2.9,4.6-5.4,7.7-7.1
	c3.1-1.7,6.6-2.7,10.1-2.7c4.8-0.1,9.4,1.3,13.3,4c3.9,2.7,6.8,6.7,8.3,11.2l17.6,53.8C71.7,84.5,32.9,98,28.9,87.5z"/>
<linearGradient id="SVGID_2_" gradientUnits="userSpaceOnUse" x1="38.9312" y1="34.7878" x2="68.3512" y2="49.5578" gradientTransform="matrix(1 0 0 -1 0 106)">
	<stop  offset="0" style="stop-color:#07C3F2"/>
	<stop  offset="1" style="stop-color:#009AE5"/>
</linearGradient>
<path class="st1" d="M89.3,70.7L40,97.4c-2.9,1.6-6.1,2.5-9.3,2.8c-3.3,0.3-6.6-0.1-9.7-1.2c-3.1-1.1-6-2.7-8.4-4.9
	c-2.4-2.2-4.4-4.9-5.7-7.9c-1.3-2.9-2-6.1-2.1-9.3c-0.1-3.2,0.5-6.4,1.7-9.4c1.2-3,3-5.7,5.3-8c2.3-2.3,5-4.1,8-5.3l52-21
	c4.3-1.7,9.1-2,13.5-0.7c4.5,1.3,8.3,4,11,7.8c1.7,2.4,2.9,5.1,3.5,8c0.6,2.9,0.5,5.9-0.1,8.8C99,60,97.8,62.7,96,65
	C94.2,67.4,91.9,69.3,89.3,70.7z"/>
<linearGradient id="SVGID_3_" gradientUnits="userSpaceOnUse" x1="76.2287" y1="49.2383" x2="27.5487" y2="85.9883" gradientTransform="matrix(1 0 0 -1 0 106)">
	<stop  offset="0" style="stop-color:#009AE5"/>
	<stop  offset="1" style="stop-color:#6B57FF"/>
</linearGradient>
<path class="st2" d="M70.7,71.2L19.8,46.6c-3.2-1.5-5.9-3.8-8.1-6.7c-2.1-2.8-3.5-6.1-4.1-9.6C7,26.8,7.2,23.3,8.3,19.9
	s2.9-6.4,5.4-8.9c3.4-3.4,7.7-5.6,12.5-6.2c4.7-0.7,9.5,0.2,13.7,2.5l49.7,27c4.8,2.6,8.4,7,10,12.3c1.6,5.2,1,10.9-1.5,15.7
	c-2.5,4.8-6.8,8.4-11.9,10C81.1,73.9,75.5,73.5,70.7,71.2z"/>
<linearGradient id="SVGID_4_" gradientUnits="userSpaceOnUse" x1="25.7833" y1="23.9729" x2="58.9433" y2="91.5029" gradientTransform="matrix(1 0 0 -1 0 106)">
	<stop  offset="0.3" style="stop-color:#07C3F2"/>
	<stop  offset="0.6" style="stop-color:#3BEA62"/>
</linearGradient>
<path class="st3" d="M18.6,98.3c-3.4-1.5-6.3-3.8-8.7-6.7c-2.3-2.9-4-6.2-4.8-9.8c-0.8-3.6-0.8-7.3,0-10.9c0.8-3.6,2.5-7,4.9-9.8
	L53.1,9c1.7-2,4-3.5,6.5-4c2.6-0.6,5.3-0.3,7.7,0.7c2.8,1.2,4.9,3.5,6.1,6.3c1.2,2.8,1.3,5.9,0.3,8.7L51.2,84.4
	c-1.1,3.2-2.9,6-5.1,8.5c-2.3,2.4-5,4.4-8.1,5.7c-3.1,1.3-6.4,2-9.7,1.9C24.9,100.5,21.6,99.7,18.6,98.3z"/>
</svg>
